images/icons/v2/send-24.svg

<svg height="24" viewBox="0 0 24 24" width="24" xmlns="http://www.w3.org/2000/svg"><path d="m22.1 10.915-16.814-9.609a1.25 1.25 0 0 0 -1.853 1.294l1.257 7.538 9.31 1.862-9.31 1.862-1.257 7.538a1.25 1.25 0 0 0 1.853 1.291l16.814-9.606a1.25 1.25 0 0 0 0-2.17z"/></svg>

<svg xmlns="http://www.w3.org/2000/svg" width="24" height="24" viewBox="0 0 24 24"><title>send-24</title><path d="M22.1,10.915,5.286,1.306A1.25,1.25,0,0,0,3.433,2.6L4.69,10.138,14,12,4.69,13.862,3.433,21.4a1.25,1.25,0,0,0,1.853,1.291L22.1,13.085A1.25,1.25,0,0,0,22.1,10.915Z"/></svg>
